X:182
%%etbk:tnset id:58,pos:1,rep:3x,ant:
%%etbk:tnset id:262,pos:7,rep:3x,ant:
%%etbk:wsite http://www.thesession.org/tunes/display/252
%%etbk:pldat 2016-06-21T16:04,2016-06-21T15:42,2016-06-18T16:24,2016-05-05T15:16,2016-05-04T15:26,2016-05-02T19:11,2016-03-11T15:52,2016-03-09T15:31,2016-03-07T18:59,2016-03-05T15:17,2016-02-27T15:19,2016-02-16T17:37,2016-02-10T16:26,2015-11-04T16:36,2015-11-03T15:32,2015-10-28T16:33,2015-10-26T18:53,2015-10-24T14:15,2015-10-22T18:41,2015-10-20T17:37,2015-10-19T18:52,2015-10-06T16:23,2015-06-23T18:51,2015-06-18T19:17,2015-03-13T18:34,2015-03-10T16:35,2015-03-05T18:13,2015-02-18T17:52,2015-02-11T17:16,2015-02-03T16:34,2014-11-05T18:12,2014-11-02T13:32,2014-10-24T18:40,2014-08-20T18:25,2014-06-25T16:03,2014-06-07T16:45,2014-03-06T18:46,2014-03-04T18:28,2014-03-01T16:02,2014-02-26T17:10,2014-02-18T16:32,2013-10-30T16:27,2013-10-28T18:45,2013-10-26T16:49,2013-10-26T16:41,2013-10-18T16:32,2013-10-15T18:47,2013-10-10T19:46,2013-10-07T18:03
T: Kilfenora, The
Z: Piano Box Version by Martin Fleischmann
H: Created 2013-02-19 /  Last Modified 2013-02-19
M: 4/4
L: 1/8
R: reel
K: Dmaj
|: "D"!4!A2!2!FA A2F!4!A | "G"!2!B{d}B!1!GB B2!4!d!2!B | "D"!1!A2!2!F!4!A A2GF | "A"!1!EFG!4!A !2!BcdB |
"D"!1!A2!2!F!4!A A2!2!F!4!A | "G"!2!B{d}B!1!GB B2!4!d!2!B | "A"!1!A!4!dcB !1!A!4!GFE | "D"!1!D2!2!C!4!E !3!!1!D4 :|
|: "D"!1!A!2!d!4!fd Adfd | "A"!1!A!2!c!4!ec Acec | "D"!1!A!2!d!4!fd Adf!2!d | "A"!5!e!1!ABc "D"!4!d{e}dd2 | 
"D"!1!A!2!d!4!fd Adfd | "A"!1!A!2!c!4!ec Ace!2!c | "D"!4!d2cB "A"!1!A!4!GFE | "D"!1!D2!2!C!4!E !3!!1!D4 :|


